X:1
T:Dievs tev devis lielu varu
T:Harm. M. Celminskis
T:Dievs tev devis lielu varu
T:(Sv. erceņģeļa Miķeļa godam)
C:Harm. M. Celminskis
Z:Charles Coffin
%%score { ( 1 2 ) | ( 3 4 ) }
L:1/8
Q:1/4=70
M:4/4
K:Bb
V:1 treble nm="P1"
V:2 treble 
V:3 bass 
V:4 bass 
V:1
!mf!"^Maestoso" B2 F2 G2 G2 | F2 E2 D2 E2 | F2 (GA) B2 c2 | A2 G2 F4 :| B2 c2 d2 B2 | e2 d2 c2 F2 | %6
w: 3. ļauj vi- ņu|se- ko- tā- jiem|Die- va * vār- du|sa- gro- zīt;|||
w: 1. tev de- vis|lie- lu va- ru,|kro- nis * ne- vīs-|tošs tev vīts.|1. veic vi- sus|tum- šos spē- kus,|
w: 1. vi klau- sa|de- bess ga- ri,|ta- vā * priek- šā|el- le trīc.|2. tus ļau- dis|grib tas sa- mīt,|
w: 2. nais, re- dzot|Die- va sla- vu|plauk- stam * Kris- tus|Baz- nī- cā,|3. ļauj nai- dam|starp mums cel- ties,|
w: 2. sās tā kā|rū- cošs lau- va|nai- da * pil- nā|skau- dī- bā.|4. biem ti- ku-|miem liec zie- dēt,|
w: 3. pie- ļauj jel|grē- ci- nie- kiem|Die- va * go- du|kā- jām mīt,|5. mūs el- les|spē- ki bai- dīs|
 B2 c2 d2 B2 | e2 d2 c2 F2 |!f! B2 A2 G2 G2 | c2 B2 A4 | B2 c2 d2 (ed) | c2 c2 B4 |] %12
w: ||||||
w: ku- ri ve- di-|na uz grē- ku!|1.\-4. ak, svē- tais|Mi- ķe- li,|Die- va tau- tu *|aiz- stā- vi!|
w: mū- žam pa- zu-|ša- nā ie- dzīt.|5. ak, svē- tais|Mi- ķe- li,|mūs pie Die- va *|aiz- stā- vi!|
w: Kris- tus ti- cī-|ga- jiem šķel- ties!|||||
w: vi- sas grē- ku|vai- nas dzie- dē!|||||
w: un kad Die- va|tie- sa gai- dīs,|||||
V:2
 D2 D2 E2 E2 | D2 C2 D2 C2 | D2 (EF) F2 F2 | F2 =E2 F4 :| F2 F2 D2 G2 | G2 G2 G2 F2 | F2 F2 F2 G2 | %7
 F2 F2 =E2 F2 | F2 F2 D2 D2 | G2 G2 F4 | F2 F2 F2 B2 | G2 A2 B4 |] %12
V:3
 F,2 B,2 B,2 A,2 | A,2 A,2 B,2 A,2 | B,2 B,C B,2 A,2 | C2 B,2 A,4 :| B,2 A,2 B,2 D2 | %5
 C2 B,2 C2 A,2 | D2 C2 B,2 D2 | C2 D2 B,2 A,2 | B,2 D2 B,2 B,2 | C2 C2 C4 | B,2 A,2 B,2 EF | %11
 E2 E2 D4 |] %12
V:4
 B,,2 B,,2 E,2 F,2 | F,2 ^F,2 G,2 =F,2 | B,,2 E,2 D,2 C,2 | C,2 C,2 F,4 :| D,2 F,2 G,2 G,2 | %5
 C,2 D,2 E,2 F,2 | B,2 A,2 B,2 G,2 | A,2 B,2 G,2 F,2 | D,2 D,2 G,2 F,2 | =E,2 E,2 F,2 _E,2 | %10
 D,2 F,2 B,2 G,F, | F,2 F,2 B,4 |] %12

